images/cart-white.svg

<svg width="14" height="14" viewBox="0 0 14 14" fill="none" xmlns="http://www.w3.org/2000/svg">
<path d="M5.83357 12.9998C6.47776 12.9998 6.99997 12.4776 6.99997 11.8334C6.99997 11.1892 6.47776 10.667 5.83357 10.667C5.18939 10.667 4.66718 11.1892 4.66718 11.8334C4.66718 12.4776 5.18939 12.9998 5.83357 12.9998Z" stroke="white" stroke-width="1.5" stroke-linecap="round" stroke-linejoin="round"/>
<path d="M10.9154 12.9998C11.5596 12.9998 12.0818 12.4776 12.0818 11.8334C12.0818 11.1892 11.5596 10.667 10.9154 10.667C10.2712 10.667 9.74902 11.1892 9.74902 11.8334C9.74902 12.4776 10.2712 12.9998 10.9154 12.9998Z" stroke="white" stroke-width="1.5" stroke-linecap="round" stroke-linejoin="round"/>
<path d="M3.12983 2.58057L4.50811 6.94445C4.72 7.61508 4.8256 7.9504 5.02926 8.19863C5.20754 8.41805 5.44 8.58743 5.70263 8.69234C6.00091 8.81097 6.352 8.81097 7.05554 8.81097H9.69897C10.4025 8.81097 10.7536 8.81097 11.0512 8.69234C11.3145 8.58743 11.5463 8.41805 11.7253 8.19863C11.9282 7.9504 12.0338 7.61508 12.2464 6.94445L12.5269 6.05577L12.6914 5.53051L12.9184 4.81051C12.9994 4.55371 13.0188 4.28145 12.9749 4.01577C12.9311 3.75009 12.8253 3.49848 12.6661 3.28131C12.5069 3.06415 12.2988 2.88754 12.0586 2.76579C11.8184 2.64405 11.5529 2.58059 11.2837 2.58057H3.12983ZM3.12983 2.58057L3.12228 2.5552C3.09333 2.45821 3.06131 2.36216 3.02628 2.2672C2.88746 1.9158 2.65205 1.61085 2.34724 1.38758C2.04243 1.16432 1.68068 1.03185 1.30377 1.00549C1.23314 1 1.15566 1 1 1" stroke="white" stroke-width="1.5" stroke-linecap="round" stroke-linejoin="round"/>
</svg>

<svg width="14" height="14" fill="none" xmlns="http://www.w3.org/2000/svg"><path d="M5.834 13a1.166 1.166 0 1 0 0-2.333 1.166 1.166 0 0 0 0 2.333zM10.915 13a1.166 1.166 0 1 0 0-2.333 1.166 1.166 0 0 0 0 2.333zM3.13 2.58l1.378 4.364c.212.671.318 1.006.521 1.255.179.219.411.388.674.493.298.119.649.119 1.353.119h2.643c.704 0 1.055 0 1.352-.119.264-.105.495-.274.674-.493.203-.249.309-.584.521-1.255l.28-.888.165-.525.227-.72a1.713 1.713 0 0 0-1.634-2.23H3.13zm0 0-.008-.025a4.794 4.794 0 0 0-.096-.288 2.002 2.002 0 0 0-1.722-1.262C1.234 1 1.156 1 1 1" stroke="#fff" stroke-width="1.5" stroke-linecap="round" stroke-linejoin="round"/></svg>
